plugin/icons/svg/tool panel/panel-pen-vector/icon_pen-vector-60%.svg

<svg width="18" height="24" viewBox="0 0 18 24" fill="none" xmlns="http://www.w3.org/2000/svg">
<rect width="18" height="24" fill="#D1D1D1"/>
<path fill-rule="evenodd" clip-rule="evenodd" d="M13 8H6V15H13V8ZM5 7V16H14V7H5Z" fill="#252525"/>
<path d="M10.0181 8.97217V9.78564H9.92236C9.47575 9.79248 9.11572 9.90869 8.84229 10.1343C8.57113 10.3599 8.4082 10.6732 8.35352 11.0742C8.61784 10.8053 8.95166 10.6709 9.35498 10.6709C9.78792 10.6709 10.132 10.8258 10.3872 11.1357C10.6424 11.4456 10.77 11.8535 10.77 12.3594C10.77 12.6829 10.6994 12.9757 10.5581 13.2378C10.4191 13.4998 10.2209 13.7038 9.96338 13.8496C9.70817 13.9954 9.41878 14.0684 9.09521 14.0684C8.57113 14.0684 8.1473 13.8861 7.82373 13.5215C7.50244 13.1569 7.3418 12.6704 7.3418 12.062V11.7065C7.3418 11.1665 7.4432 10.6903 7.646 10.2778C7.85107 9.86312 8.14388 9.54297 8.52441 9.31738C8.90723 9.08952 9.35042 8.97445 9.854 8.97217H10.0181ZM9.0542 11.4639C8.89469 11.4639 8.75 11.506 8.62012 11.5903C8.49023 11.6724 8.39453 11.7817 8.33301 11.9185V12.2192C8.33301 12.5496 8.39795 12.8083 8.52783 12.9951C8.65771 13.1797 8.84001 13.272 9.07471 13.272C9.28662 13.272 9.45752 13.1888 9.5874 13.0225C9.71956 12.8538 9.78564 12.6362 9.78564 12.3696C9.78564 12.0985 9.71956 11.8797 9.5874 11.7134C9.45524 11.547 9.27751 11.4639 9.0542 11.4639Z" fill="#252525"/>
</svg>

<?xml version="1.0" encoding="utf-8"?>
<!-- Generator: Adobe Illustrator 25.2.0, SVG Export Plug-In . SVG Version: 6.00 Build 0)  -->
<svg version="1.1" id="Layer_1" xmlns="http://www.w3.org/2000/svg" xmlns:xlink="http://www.w3.org/1999/xlink" x="0px" y="0px"
	 viewBox="0 0 18 24" style="enable-background:new 0 0 18 24;" xml:space="preserve">
<style type="text/css">
	.st0{display:none;fill:#D1D1D1;}
	.st1{fill-rule:evenodd;clip-rule:evenodd;fill:#252525;}
	.st2{fill:#252525;}
</style>
<rect class="st0" width="18" height="24"/>
<path class="st1" d="M13,8H6v7h7V8z M5,7v9h9V7H5z"/>
<path class="st2" d="M10,9v0.8H9.9c-0.4,0-0.8,0.1-1.1,0.3c-0.3,0.2-0.4,0.5-0.5,0.9c0.3-0.3,0.6-0.4,1-0.4c0.4,0,0.8,0.2,1,0.5
	c0.3,0.3,0.4,0.7,0.4,1.2c0,0.3-0.1,0.6-0.2,0.9c-0.1,0.3-0.3,0.5-0.6,0.6c-0.3,0.1-0.5,0.2-0.9,0.2c-0.5,0-0.9-0.2-1.3-0.5
	c-0.3-0.4-0.5-0.9-0.5-1.5v-0.4c0-0.5,0.1-1,0.3-1.4c0.2-0.4,0.5-0.7,0.9-1C8.9,9.1,9.4,9,9.9,9H10z M9.1,11.5c-0.2,0-0.3,0-0.4,0.1
	c-0.1,0.1-0.2,0.2-0.3,0.3v0.3c0,0.3,0.1,0.6,0.2,0.8c0.1,0.2,0.3,0.3,0.5,0.3c0.2,0,0.4-0.1,0.5-0.2c0.1-0.2,0.2-0.4,0.2-0.7
	c0-0.3-0.1-0.5-0.2-0.7C9.5,11.5,9.3,11.5,9.1,11.5z"/>
</svg>
